X:1
T:Feast, 10.10.12.10
T:Feast, 10.10.12.10
T:Philip Paul Bliss, 1876
T:Public Domain Courtesy of the Cyber Hymnal™
C:Philip Paul Bliss, 1876
Z:Public Domain
Z:Courtesy of the Cyber Hymnal™
%%score ( 1 2 ) ( 3 4 )
L:1/8
Q:1/4=113
M:4/4
K:Bb
V:1 treble 
V:2 treble 
V:3 bass 
V:4 bass 
V:1
 [Fd]4 [Ec]2 [DB]2 | [DF]2 [B,D]2 [DF]4 | [EG]4 [EA]2 [Ec]2 | B4 F4 | [Fd]4 [Ec]2 [DB]2 | %5
 [DF]2 [B,D]2 [DF]4 | [EG]4 [EA]2 [Ec]2 | [DB]8 | [Fc]4 [Fc]2 [Fc]2 | [Fd]2 [Fd]2 [Fc]4 | %10
 [Gc]4 [Fc]2 [GB]2 | [FA]2 [=EG]2 F4 | [Fd]4 [Ec]2 [DB]2 | [DF]2 [B,D]2 [DF]4 | [EG]4 [EA]2 [Ec]2 | %15
 [DB]8 |] %16
V:2
 x8 | x8 | x8 | D8 | x8 | x8 | x8 | x8 | x8 | x8 | x8 | x4 F4 | x8 | x8 | x8 | x8 |] %16
V:3
 [B,,B,]4 [B,,B,]2 [B,,B,]2 | [B,,B,]2 [B,,F,]2 [B,,B,]4 | B,2 G,2 F,2 F,2 | F,4 B,4 | %4
 [B,,B,]4 [B,,B,]2 [B,,B,]2 | [B,,B,]2 [B,,F,]2 [B,,B,]4 | (B,2 G,2) F,2 F,2 | [B,,F,]8 | %8
 [F,A,]4 [F,A,]2 [E,A,]2 | [D,B,]2 [B,,B,]2 [F,A,]4 | [=E,C]4 [F,A,]2 [B,,D]2 | %11
 [C,C]2 [C,B,]2 [F,A,]4 | [B,,B,]4 [B,,B,]2 [B,,B,]2 | [B,,B,]2 [B,,F,]2 [B,,B,]4 | %14
 (B,2 G,2) F,2 F,2 | [B,,F,]8 |] %16
V:4
 x8 | x8 | E,4 F,2 F,2 | B,,8 | x8 | x8 | E,4 F,2 F,2 | x8 | x8 | x8 | x8 | x8 | x8 | x8 | %14
 E,4 F,2 F,2 | x8 |] %16

